X:1
T:There’s a Place for Me
T:There’s a Place for Me
T:Thomas Benjamin Mosley
T:George Washburn Lyon, 1900
T:Public Domain Courtesy of the Cyber Hymnal™
T:Public Domain Courtesy of the Cyber Hymnal™
C:Thomas Benjamin Mosley
Z:Public Domain
Z:Courtesy of the Cyber Hymnal™
%%score ( 1 2 ) ( 3 4 )
L:1/8
Q:1/4=100
M:3/4
K:Eb
V:1 treble 
V:2 treble 
V:3 bass 
V:4 bass 
V:1
 [GB] | [GB]2 [^F=A] [_Ac]2 [GB] | [^F=A]2 [GB] [EG]2 E | [EG][EG] [EG][EF] [EF]E | %4
w: 1.~It|may not be for|me to know Just|where I can la- bor the|
w: 2.~Per-|haps the words that|I may speak Will|com- fort some sor- row- ing|
w: 3.~To-|day, per- chance, a|pre- cious soul Is|out on the high- way of|
w: 4.~Yes,|yes, some- where in|this wide world A|mis- sion I have to ful-|
 [DB]3- [DB]2 [EB] | [EB]2 [E=A] [Ec]2 [EB] | [EG]2 [FB] [Ee]2 [Ee] | [Fd][Fd] [Fd][EG] [E=A][Ec] | %8
w: best, * But|in my hum- ble|way I’ll try To|lift up the weak and op-|
w: heart, * And|let the bless- èd|sun- shine in Where|once it was lone- ly and|
w: sin, * That|I may clasp with|friend- ly hand And|bring to the bright fold a-|
w: fill; * Then|let me la- bor|where God calls, And|faith- ful- ly do His great|
 [DB]6 ||"^Refrain" [GB]3 [Ac]2 [GB] | [EG]2 [DF] E2 [EG] | [GB]3 [Ge]3 | [Ad]6 | %13
w: pressed.|||||
w: dark.|Yes, there’s a|place for me, for|me I|know,|
w: gain.|||||
w: will.|||||
 [FA]3 [Bd]2 [Ac] | [GB]2 [FA] [EG]2 [EG] | [DF]3 [Ec]3 | B6 | [GB]3 [Ac]2 [GB] | %18
w: |||||
w: Where I can|help, can help by|deed or|word,|Bring- ing the|
w: |||||
w: |||||
 [EG]2 [DF] E2 [EG] | [GB]3 [Be]3 | [Ae]6 | [Af]3 [Ae]2 [Ac] | [GB]2 [EG] E2 [EF] | [EG]3 [DF]3 | %24
w: ||||||
w: weak, the lost and|per- ish-|ing,|In- to the|king- dom of my|bless- èd|
w: ||||||
w: ||||||
 E3- E2 |] %25
w: |
w: Lord. *|
w: |
w: |
V:2
 x | x6 | x5 E | x5 E | x6 | x6 | x6 | x6 | x6 || x6 | x3 E2 x | x6 | x6 | x6 | x6 | x6 | (D3 F3) | %17
 x6 | x3 E2 x | x6 | x6 | x6 | x3 E2 x | x6 | E3- E2 |] %25
V:3
 [E,E] | [E,E]2 [E,E] [E,E]2 [E,E] | [E,E]2 [E,E] [E,B,]2 [E,G,] | %3
w: ~|~ ~ ~ ~|~ ~ ~ ~|
 [E,B,][E,B,] [E,B,][C,=A,] [C,A,][C,A,] | [B,,B,]3- [B,,B,]2 [E,G,] | %5
w: ~ ~ ~ ~ ~ ~|~ * ~|
 [E,G,]2 [E,^F,] [E,A,]2 [E,G,] | [E,B,]2 [D,F,] [C,G,]2 [C,C] | %7
w: ~ ~ ~ ~|~ ~ ~ ~|
 [F,B,][F,B,] [F,B,][F,C] [F,C][F,=A,] | [B,,B,]6 || [E,E][E,E] [E,E][E,E] [E,E][E,E] | %10
w: ~ ~ ~ ~ ~ ~|~|Yes, there’s a work and a|
 [E,B,]2 [E,A,] [E,G,]2 [E,B,] | [E,E]3 [E,B,]3 | [F,A,]6 | %13
w: place for me, for|me, I|know,|
 [D,B,][D,B,] [D,B,][B,,A,] [B,,A,][B,,A,] | [E,B,]2 [E,B,] [E,B,]2 [E,B,] | [F,B,]3 [F,=A,]3 | %16
w: Where I can la- bor and|help, can help by|deed or|
 (B,3 D3) | [E,E][E,E] [E,E][E,E] [E,E][E,E] | [E,B,]2 [E,A,] [E,G,]2 [E,B,] | [E,E]3 [G,_D]3 | %20
w: word, *|Bring- ing the err- ing, the|weak, the lost and|per- ish-|
 [A,C]6 | [A,C][A,C] [A,C][A,C] [A,C][A,E] | [E,E]2 [E,B,] [C,=A,]2 [C,A,] | [B,,B,]3 [B,,A,]3 | %24
w: ing,|In- to the king- dom, *|||
 [E,G,]3- [E,G,]2 |] %25
w: |
V:4
 x | x6 | x6 | x6 | x6 | x6 | x6 | x6 | x6 || x6 | x6 | x6 | x6 | x6 | x6 | x6 | B,,6 | x6 | x6 | %19
 x6 | x6 | x6 | x6 | x6 | x5 |] %25

